T: Happy, The
M: 2/4
L: 1/8
K: Dmaj
af/a/ f/a/f/a/ | .af/a/ f/a/f/a/ | .af .bf | .af .ba |ge/g/ e/g/e/g/ |
.ge ce |1 .ba ((3.gfe) | .ba ((3.gfe) :|2 .ba ((3.gfe) | d2 ag ||
f2>.f2 | e2 d2 | (B/c/d) ef | ba.af |1 g2>.g2 |dc Bc |
BA FA :|2 g/a/g/a/ g/a/g/a/ | f/a/f/a/ f/a/f/a/ |eA Bc | dz bz ||
